X: 124
T: the General
B: C. & S. Thompson, "The Compleat Tutor for the Fife" c.1760 p.12 #4
S: http://imslp.org/wiki/The_Compleat_Tutor_for_the_Fife_(Anonymous)
Z: 2014 John Chambers <jc:trillian.mit.edu>
M: C
L: 1/8
K: G
% - - - - - - - - - - - - - - - - - - - - - - - - -
|: GABc d2d2 | d2de d4 | {c}B2AG c2B2 | TA4 G4 :|\
|: A2A2 B2Bc | d2cB A3e | d4 TB4 | TA4 G4 :|
% - - - - - - - - - - - - - - - - - - - - - - - - -
